X: 1
T: Alphy's Reel
C: Alphy Marin
S: Fiddle Hell 2018 class by Don Roy
R: reel
Z: 2018 John Chambers <jc:trillian.mit.edu>
M: C|
L: 1/8
K: C
|:\
"C"[E2C2][EC][EC] [A2E2][AE][AE] | "F"[A2F2][AF][AF] A2AA | "G"BcBA GBdB |\
"C"cBcA G^FGE | "C"[E2C2][EC][EC] [A2E2][AE][AE] | "F"[A2F2][AF][AF] A2AA |
"G"BcBA GBdB |[1 "C"[e2c2][ec][ec] [e2c2] (3(G,A,B,) :|[2 "C"[e2c2][ec][ec] [e2c2]ef |:\
"C"g^fga gedB | cBcd cBcA | "G"BcBA "G7"GBdB |
"C"cBcd e2ef | g^fga gedB | cBcd cBcA |\
"G"BcBA "G7"GBdB |[1 "C"[e2c2][ec][ec] [e2c2]ef :|[2 "C"[e2c2][ec][ec] [e2c2] (3(G,A,B,) |]
